X:020
T:Buddy Furey's (polka) 
B:CRE3.071 (Polca BhodaÃÂÃÂÃÂÃÂ­ UÃÂÃÂÃÂÃÂ­ FhoirrÃÂÃÂÃÂÃÂ©idh)
F:file ID: cre.3/020buddy_f
R:polka
Q:220
M:2/4
L:1/8
K:A
d/e/ |:cA A/B/c/A/|dB Be/d/|cA A/B/c/A/|BE Ee/d/|
cA A/B/c/A/|dB Be/d/|cA/c/ BE|A2 A>B:|
|:ce ee|f>g a/g/f/e/|ce ee|B>c d/c/B/A/|
ce ee|f>g a/g/f/e/|cA/c/ BE|1 A2 A>B:|2 HA4 |]

%%%

